X:218
%%etbk:tnset id:67,pos:3,rep:3x,ant:
%%etbk:pldat 2015-04-22T15:52,2014-12-28T14:24,2014-11-18T16:51,2014-05-09T18:45,2014-04-30T16:54,2014-04-26T17:00,2014-02-16T13:45,2014-02-10T18:14,2013-09-17T10:04
T: Jim Ward's
Z: Piano Box Version by Martin Fleischmann
H: Created 2013-02-19 /  Last Modified 2013-02-19
M: 6/8
L: 1/8
R: jig
K: Gmaj
|: "G"!1!G!2!G!1!G !1!GAB | !2!A!1!G!2!E !3!G!2!E!1!D | !3!G!2!G!3!G !4!A!3!G!2!E | "D"!3!G!2!E!1!D !1!DE!3!F | 
"G"!1!GGG GAB | !2!A!1!G!2!E !1!GAB | "C"!4!c2A !3!B!1!G!2!E |1 "D"!1!DED !1!DE!3!F:|2 "D"!1!DED D3||
|: "D"!4!c2A !3!BAG | !2!A!1!A!2!A !2!AdB | !4!c2A !3!B!1!G!2!E | !1!DED D2!3!B | 
!4!c2A !3!BAG | !2!AAA ABc | !5!dc!2!A {c}A!1!G!2!E |1 !4!GE!1!D D2!3!B :|2 !4!GE!1!D DEF || !4!G6|


